X:1
T:Horizonto
M:6/8
L:1/8
C:Paul James
R:Jig
Z:Steve Mansfield
K:Em
"Em"bc'b abg | afg efd| BAB efg | "D"fef def | "C"gcg gag |"D" fef def | "C"gfe fed |1 "D"B^cd "Em"e3 :|2 B^c^d e3||"C"cAc efg | cAc efg | "Em"BGB efg | BGB efg | "C"cAc efg | cAc efg | "Em"bc'b abg | afg efd |"C"cAc efg | cAc efg | "Em"BGB efg | BGB efg |"C"cAc efg | cAc efg | "A"^cAc efg | ^cAc efg ||
"C"c'2b- bag | "D"f2d fga |"G" b2 a- agf | "C"e2c efg | "Am7"a2g- gfe |"B"^d2B def| "Em"g2a- a^a2| "B"b3 bab|
"C"c'2d'- d'c'2|"D"f3 fga| "G"b2c'- c'b2| "C"e3 efg | "Am7"a2g- gfe| "B"^d2B def  | "Em"g2e ef^d | e6||
